svg/system/refresh_4_line.svg

<?xml version="1.0" encoding="UTF-8"?>
<svg width="24px" height="24px" viewBox="0 0 24 24" version="1.1" xmlns="http://www.w3.org/2000/svg" xmlns:xlink="http://www.w3.org/1999/xlink">
    <title>refresh_4_line</title>
    <g id="Icon" stroke="none" stroke-width="1" fill="none" fill-rule="evenodd">
        <g id="System" transform="translate(-432.000000, -384.000000)" fill-rule="nonzero">
            <g id="refresh_4_line" transform="translate(432.000000, 384.000000)">
                <path d="M24,0 L24,24 L0,24 L0,0 L24,0 Z M12.5935,23.2578 L12.5819,23.2595 L12.5109,23.295 L12.4919,23.2987 L12.4767,23.295 L12.4057,23.2595 C12.3958,23.2564 12.387,23.259 12.3821,23.2649 L12.378,23.2758 L12.3609,23.7031 L12.3659,23.7235 L12.3769,23.7357 L12.4805,23.8097 L12.4953,23.8136 L12.5071,23.8097 L12.6107,23.7357 L12.6233,23.7197 L12.6267,23.7031 L12.6096,23.2758 C12.6076,23.2657 12.601,23.2593 12.5935,23.2578 Z M12.8584,23.1453 L12.8445,23.1473 L12.6598,23.2397 L12.6499,23.2499 L12.6472,23.2611 L12.6651,23.6906 L12.6699,23.7034 L12.6784,23.7105 L12.8793,23.8032 C12.8914,23.8069 12.9022,23.803 12.9078,23.7952 L12.9118,23.7812 L12.8777,23.1665 C12.8753,23.1546 12.8674,23.147 12.8584,23.1453 Z M12.143,23.1473 C12.1332,23.1424 12.1222,23.1453 12.1156,23.1526 L12.1099,23.1665 L12.0758,23.7812 C12.0751,23.7927 12.0828,23.8019 12.0926,23.8046 L12.1083,23.8032 L12.3092,23.7105 L12.3186,23.7024 L12.3225,23.6906 L12.3404,23.2611 L12.3372,23.2485 L12.3278,23.2397 L12.143,23.1473 Z" id="MingCute"></path>
                <path d="M4,9.00002 C4.51284071,9.00002 4.93550786,9.38606429 4.99327234,9.88338374 L5,10 L5,11 C5,14.2383886 7.56557346,16.8775714 10.7750616,16.9958615 L11,17 L14.5858,17 L13.7929,16.2071 C13.4024,15.8166 13.4024,15.1834 13.7929,14.7929 C14.1533615,14.4324385 14.7206207,14.4047107 15.1128973,14.7097166 L15.2071,14.7929 L17.7071,17.2929 C17.7266,17.3124 17.7451,17.3325 17.7628,17.3534 C17.87968,17.49108 17.959888,17.660824 17.9884736,17.8475792 L18,18.0095 C17.9978333,18.23825 17.9188611,18.4487361 17.7876204,18.6162477 L17.7028,18.7114 L15.2071,21.2071 C14.8166,21.5976 14.1834,21.5976 13.7929,21.2071 C13.4324385,20.8466385 13.4047107,20.2793793 13.7097166,19.8871027 L13.7929,19.7929 L14.5858,19 L11,19 C6.66508377,19 3.13545706,15.5521834 3.00380682,11.2491805 L3,11 L3,10 C3,9.44774 3.44771,9.00002 4,9.00002 Z M8.79289,2.79289 C9.18342,2.40237 9.81658,2.40237 10.2071,2.79289 C10.5675615,3.15337923 10.5952893,3.72060645 10.2902834,4.11290152 L10.2071,4.20711 L9.41419,5.00003 L13,5.00003 C17.3349358,5.00003 20.8645437,8.44786584 20.9961932,12.7508222 L21,13 L21,14 C21,14.5523 20.5523,15 20,15 C19.48715,15 19.0644908,14.613973 19.0067275,14.1166239 L19,14 L19,13 C19,9.76163091 16.434417,7.12244861 13.2249377,7.00415848 L13,7.00002 L9.41424,7.00002 L10.2071,7.79289 C10.5976,8.18342 10.5976,8.81658 10.2071,9.20711 C9.84662,9.56759 9.27939349,9.59531923 8.88709847,9.29029769 L8.79289,9.20711 L6.29289,6.70711 C5.93241,6.34662077 5.90468077,5.77939355 6.20970231,5.38709848 L6.29289,5.29289 L8.79289,2.79289 Z" id="形状" fill="#09244B"></path>
            </g>
        </g>
    </g>
</svg>

<svg xmlns="http://www.w3.org/2000/svg" width="24" height="24"><g fill="none" fill-rule="nonzero"><path d="M24 0v24H0V0h24ZM12.594 23.258l-.012.002-.071.035-.02.004-.014-.004-.071-.036c-.01-.003-.019 0-.024.006l-.004.01-.017.428.005.02.01.013.104.074.015.004.012-.004.104-.074.012-.016.004-.017-.017-.427c-.002-.01-.009-.017-.016-.018Zm.264-.113-.014.002-.184.093-.01.01-.003.011.018.43.005.012.008.008.201.092c.012.004.023 0 .029-.008l.004-.014-.034-.614c-.003-.012-.01-.02-.02-.022Zm-.715.002a.023.023 0 0 0-.027.006l-.006.014-.034.614c0 .012.007.02.017.024l.015-.002.201-.093.01-.008.003-.011.018-.43-.003-.012-.01-.01-.184-.092Z"/><path fill="#09244B" d="M4 9a1 1 0 0 1 .993.883L5 10v1a6 6 0 0 0 5.775 5.996L11 17h3.586l-.793-.793a1 1 0 0 1 1.32-1.497l.094.083 2.5 2.5a.992.992 0 0 1 .281.555l.012.162a.996.996 0 0 1-.212.606l-.085.095-2.496 2.496a1 1 0 0 1-1.497-1.32l.083-.094.793-.793H11a8 8 0 0 1-7.996-7.75L3 11v-1a1 1 0 0 1 1-1Zm4.793-6.207a1 1 0 0 1 1.497 1.32l-.083.094L9.414 5H13a8 8 0 0 1 7.996 7.75L21 13v1a1 1 0 0 1-1.993.117L19 14v-1a6 6 0 0 0-5.775-5.996L13 7H9.414l.793.793a1 1 0 0 1-1.32 1.497l-.094-.083-2.5-2.5a1 1 0 0 1-.083-1.32l.083-.094 2.5-2.5Z"/></g></svg>
